X: 109201
T: LADY BAIRD
Q:"Strathspey."
R: Strathspey.
%R:strathspey
N: This is version 2, for ABC software that understands voice overlays.
B: James Kerr "Merry Melodies" v.1 p.9 s.2 #1
Z: 2016 John Chambers <jc:trillian.mit.edu>
M: C
L: 1/16
K: A
|: ua2 |\
veuc3 vc3uB vA3vB uA3uE | F3AE3A F3AE3a |\
ec3 c3B A3BA3B | ce3 ve3u^d e4-e2 ::\
u=g2 |\
fd3vd4uB vc3vdue3uc | dB3 B3G A3Bc3A |\
F3AE3A F3AE3d | dcBA cBAG "^1st"A3ce2 & x8 "_2nd"A4A2 |]

%%sep 1 1 500
%%sep 1 1 500

